X: 18465
T: Husky's
R: reel
M: 4/4
K: Eminor
E2E/E/D E/E/FGA|A/A/BGB A{B}A{G}AG|BG G/G/G A/A/F D/D/F|G/G/E F/F/D EDB,D|
DEE/E/D E/E/FGA|A/A/BGB A{B}A{G}Ac|BG G/G/G A/A/F D/D/F|G/G/E FD E/E/EFz:|
B2 d/d/B d/d/e d/d/B|A/A/G A/A/B A/A/G E/E/D|B2 d/d/B d/d/e d/d/B|A/A/G A/A/G ABd2|
B2 d/d/B d/d/e d/d/B|A/A/G A/A/B A/A/G E/E/D|B3d A/A/G (A2|A)B A/A/G A/A/G E/E/D:|

